assets/images/svg/bg/arrowdown.svg

<svg width="21" height="32" viewBox="0 0 21 32" fill="none" xmlns="http://www.w3.org/2000/svg">
<path d="M10.7077 30.9328L19.894 22.8437C20.1641 22.7079 20.3826 22.3526 20.3819 22.0503L20.366 14.5862C20.3653 14.2839 20.1458 14.1488 19.8757 14.2846L10.6893 22.3736C10.4192 22.5095 9.98058 22.5104 9.70982 22.3757L0.671379 14.3257C0.400622 14.191 0.18171 14.3271 0.182357 14.6294L0.198338 22.0935C0.199552 22.6604 0.816546 23.0078 1.19295 23.3325C1.69119 23.7622 8.37452 29.7294 9.72815 30.935C9.99907 31.0694 10.4374 31.0685 10.7077 30.9328Z" fill="#EA002B"/>
<path d="M0.64135 0.492462C0.370593 0.357806 0.15168 0.49385 0.152327 0.796173C0.152327 0.796173 0.168309 8.26028 0.168309 8.26045C0.169959 8.9515 1.56328 9.85646 2.06846 10.3063C2.95699 11.0977 9.61145 17.0585 9.69829 17.1016C9.96904 17.2363 10.4076 17.2353 10.6778 17.0995L19.8642 9.01045C20.1343 8.87458 20.3528 8.51939 20.3521 8.21707L20.3362 0.752957C20.3355 0.450634 20.116 0.315586 19.8458 0.451343L10.6595 8.54049C10.3894 8.6763 9.95072 8.67724 9.67996 8.54258L0.64135 0.492462Z" fill="#EA002B"/>
</svg>

<svg width="21" height="32" fill="none" xmlns="http://www.w3.org/2000/svg"><path d="M10.708 30.933l9.186-8.09a.97.97 0 00.488-.793l-.016-7.464c0-.302-.22-.437-.49-.301l-9.187 8.089c-.27.136-.708.136-.98.002l-9.038-8.05c-.27-.135-.49.001-.489.303l.016 7.464c.002.567.619.915.995 1.24.498.43 7.182 6.396 8.535 7.602.271.134.71.134.98-.002z" fill="#EA002B"/><path d="M.641.492C.371.358.151.494.152.796L.168 8.26c.002.691 1.395 1.596 1.9 2.046.889.792 7.543 6.752 7.63 6.796.271.134.71.133.98-.003l9.186-8.089a.97.97 0 00.488-.793L20.336.753c0-.302-.22-.437-.49-.302l-9.187 8.09c-.27.135-.708.136-.979.002L.641.493z" fill="#EA002B"/></svg>
